svgs/thin/film-slash.svg

<svg xmlns="http://www.w3.org/2000/svg" viewBox="0 0 640 512"><!--! Font Awesome Pro 6.3.0 by @fontawesome - https://fontawesome.com License - https://fontawesome.com/license (Commercial License) Copyright 2023 Fonticons, Inc. --><path d="M464 464v-1.557L448 449.7V464H192V264h22.35L194.2 248H192V246.2L176 233.5V296h-96v-80h73.96L133.8 200H80V157.2L64 144.5V432C64 458.5 85.49 480 112 480h374.1l-20.13-16H464zM176 464h-64c-17.64 0-32-14.36-32-32v-24h96V464zM176 392h-96v-80h96V392zM176 48v1.551L192 62.27V48h256v200h-22.34l20.13 16H448v1.76l16 12.72V216h96v80h-73.96l20.13 16H560v42.79l16 12.72V80C576 53.49 554.5 32 528 32H153.9l20.13 16H176zM464 48h64c17.64 0 32 14.36 32 32v24h-96V48zM464 120h96v80h-96V120zM636.1 497.7L12.99 1.73C11.53 .5664 9.771 0 8.025 0C5.674 0 3.336 1.027 1.738 3.012c-2.75 3.469-2.172 8.5 1.281 11.25l623.1 496C628.5 511.4 630.2 512 631.1 512c2.344 0 4.688-1.031 6.266-3.016C641 505.5 640.4 500.5 636.1 497.7z"/></svg>

<svg xmlns="http://www.w3.org/2000/svg" viewBox="0 0 640 512"><!-- Font Awesome Pro 6.0.0-alpha2 by @fontawesome - https://fontawesome.com License - https://fontawesome.com/license (Commercial License) --><path d="M463.999 464V462.443L447.999 449.727V464H191.999V264H214.349L194.22 248H191.999V246.234L175.999 233.518V296H79.999V216H153.962L133.833 200H79.999V157.207L63.999 144.49V432C63.999 458.51 85.492 480 111.999 480H486.085L465.956 464H463.999ZM175.999 464H111.999C94.355 464 79.999 449.645 79.999 432V408H175.999V464ZM175.999 392H79.999V312H175.999V392ZM175.999 48V49.551L191.999 62.27V48H447.999V248H425.658L445.786 264H447.999V265.76L463.999 278.479V216H559.999V296H486.042L506.171 312H559.999V354.787L575.999 367.506V80C575.999 53.49 554.507 32 527.999 32H153.919L174.048 48H175.999ZM463.999 48H527.999C545.644 48 559.999 62.355 559.999 80V104H463.999V48ZM463.999 120H559.999V200H463.999V120ZM636.98 497.734L12.988 1.73C11.525 0.566 9.771 0 8.025 0C5.673 0 3.335 1.027 1.738 3.012C-1.012 6.48 -0.434 11.512 3.019 14.262L627.011 510.266C628.495 511.438 630.245 512 631.995 512C634.339 512 636.683 510.969 638.261 508.984C641.011 505.516 640.433 500.484 636.98 497.734Z"/></svg>
